Images/github-icon.svg

<svg width="35" height="35" viewBox="0 0 35 35" fill="none" xmlns="http://www.w3.org/2000/svg">
<path d="M17.4844 1.46274e-06C7.82422 -0.00390479 0 7.81641 0 17.4688C0 25.1016 4.89453 31.5899 11.7109 33.9727C12.6289 34.2032 12.4883 33.5508 12.4883 33.1055V30.0782C7.1875 30.6992 6.97266 27.1914 6.61719 26.6055C5.89844 25.3789 4.19922 25.0664 4.70703 24.4805C5.91406 23.8594 7.14453 24.6367 8.57031 26.7422C9.60156 28.2696 11.6133 28.0117 12.6328 27.7578C12.8555 26.8399 13.332 26.0196 13.9883 25.3828C8.49609 24.3985 6.20703 21.0469 6.20703 17.0625C6.20703 15.1289 6.84375 13.3516 8.09375 11.918C7.29688 9.5547 8.16797 7.53126 8.28516 7.23048C10.5547 7.02735 12.9141 8.85548 13.0977 9.00001C14.3867 8.65235 15.8594 8.46876 17.5078 8.46876C19.1641 8.46876 20.6406 8.66016 21.9414 9.01173C22.3828 8.67579 24.5703 7.10548 26.6797 7.29688C26.793 7.59766 27.6445 9.57423 26.8945 11.9063C28.1602 13.3438 28.8047 15.1367 28.8047 17.0742C28.8047 21.0664 26.5 24.4219 20.9922 25.3906C21.4639 25.8546 21.8385 26.4079 22.0941 27.0182C22.3496 27.6285 22.481 28.2837 22.4805 28.9453V33.3399C22.5117 33.6914 22.4805 34.0391 23.0664 34.0391C29.9844 31.7071 34.9648 25.1719 34.9648 17.4727C34.9648 7.81641 27.1367 1.46274e-06 17.4844 1.46274e-06Z" fill="black"/>
</svg>

<svg xmlns="http://www.w3.org/2000/svg" width="35" height="35" fill="none" xmlns:v="https://vecta.io/nano"><path d="M17.484 0C7.824-.004 0 7.816 0 17.469c0 7.633 4.895 14.121 11.711 16.504.918.23.777-.422.777-.867v-3.027c-5.301.621-5.516-2.887-5.871-3.473-.719-1.227-2.418-1.539-1.91-2.125 1.207-.621 2.438.156 3.863 2.262 1.031 1.527 3.043 1.27 4.062 1.016a4.93 4.93 0 0 1 1.356-2.375c-5.492-.984-7.781-4.336-7.781-8.32 0-1.934.637-3.711 1.887-5.145-.797-2.363.074-4.387.191-4.688 2.27-.203 4.629 1.625 4.813 1.77 1.289-.348 2.762-.531 4.41-.531 1.656 0 3.133.191 4.434.543.441-.336 2.629-1.906 4.738-1.715.113.301.965 2.277.215 4.609 1.266 1.438 1.91 3.23 1.91 5.168 0 3.992-2.305 7.348-7.812 8.316.472.464.846 1.017 1.102 1.628a4.98 4.98 0 0 1 .386 1.927v4.395c.031.352 0 .699.586.699 6.918-2.332 11.898-8.867 11.898-16.566C34.965 7.816 27.137 0 17.484 0z" fill="#000"/></svg>
